component-icons/svg/collapsible.svg

<?xml version="1.0" encoding="utf-8"?>
<!-- Generator: Adobe Illustrator 14.0.0, SVG Export Plug-In . SVG Version: 6.00 Build 43363)  -->
<!DOCTYPE svg PUBLIC "-//W3C//DTD SVG 1.1//EN" "http://www.w3.org/Graphics/SVG/1.1/DTD/svg11.dtd">
<svg version="1.1" id="Layer_1" xmlns="http://www.w3.org/2000/svg" xmlns:xlink="http://www.w3.org/1999/xlink" x="0px" y="0px"
	 width="24px" height="24px" viewBox="0 0 24 24" enable-background="new 0 0 24 24" xml:space="preserve">
<path fill="#818181" d="M6,5h14l-2,2H6V5z M6,11h12l2-2H6V11z M6,15h12l2-2H6V15z M6,19h6l2-2H6V19z M6,2h16l2-2H6V2z M0,24h22l2-2
	H0V24z M0,2h4V0H0V2z"/>
</svg>

<svg id="Layer_1" data-name="Layer 1" xmlns="http://www.w3.org/2000/svg" viewBox="0 0 24 24">
  <defs>
    <style>
      .cls-1 {
        fill: gray;
      }
    </style>
  </defs>
  <title>collapsible</title>
  <path class="cls-1" d="M20,5H6V7H18Zm0,4H6v2H18Zm4-9H6V2H22ZM14,17H6v2h6ZM0,24H22l2-2H0ZM4,0H0V2H4ZM20,13H6v2H18Z"/>
</svg>
